icons/svg/google-play.svg

<svg width="24" height="24" viewBox="0 0 24 24" fill="none" xmlns="http://www.w3.org/2000/svg">
<path d="M16.2808 16.3115L19.5708 14.4495C20.5236 13.9103 21 12.9552 21 12C21 11.0448 20.5236 10.0897 19.5708 9.55047L16.2808 7.68855M16.2808 16.3115L8.20793 20.88C7.27984 21.4053 6.24194 21.3403 5.42915 20.88C5.16915 20.7328 4.93219 20.5452 4.72923 20.3234M16.2808 16.3115L4.72924 3.67658M4.72923 20.3234C4.28213 19.835 4 19.1813 4 18.4305L4 5.56948C4 4.64665 4.42626 3.87048 5.06117 3.36765C5.91037 2.69511 7.13282 2.51152 8.20793 3.11995L16.2808 7.68855M4.72923 20.3234L16.2808 7.68855" stroke="currentColor" stroke-width="1.5" stroke-linejoin="round"/>
</svg>

<svg xmlns="http://www.w3.org/2000/svg" width="24" height="24" fill="none" viewBox="0 0 24 24"><path stroke="currentColor" stroke-linejoin="round" stroke-width="1.5" d="m16.28 16.311 3.29-1.861A2.79 2.79 0 0 0 21 12c0-.955-.476-1.91-1.43-2.45l-3.29-1.86m0 8.622L8.209 20.88a2.8 2.8 0 0 1-2.779 0 2.9 2.9 0 0 1-.7-.557m11.552-4.012L4.729 3.677m0 16.646A2.78 2.78 0 0 1 4 18.43V5.57a2.78 2.78 0 0 1 1.061-2.202 2.81 2.81 0 0 1 3.147-.248l8.073 4.569M4.729 20.323 16.281 7.69"/></svg>
